X: 5718
T: Cadgers, The
R: reel
M: 4/4
K: Adorian
Aeed edBG|Aeed B2GB|Aeed efge|dedB cBAG:|
A2 EA|ABcB|AEEA c2Bc|A2 EA ABce|dedB cBAG|
A2 EA|ABcB|AEEA c2Bc|dgfg efgf|(3eee eg edBG||

